src/images/triata-logo.svg

<svg width="168" height="118" viewBox="0 0 168 118" fill="none" xmlns="http://www.w3.org/2000/svg">
<path d="M114.551 68.9223C115.372 68.6631 116.184 68.4039 116.995 68.1498C117.553 67.9719 118.115 67.7991 118.673 67.6162C118.815 67.5704 118.846 67.606 118.861 67.7381C118.917 68.3887 118.846 69.024 118.693 69.6542C118.435 70.696 118.014 71.6566 117.238 72.424C115.545 74.1012 112.817 74.4417 110.814 73.1457C109.587 72.3478 108.781 71.189 108.609 69.6999C108.35 67.484 109.278 65.7865 111.068 64.5515C112.371 63.652 113.831 63.4182 115.383 63.6723C115.504 63.6926 115.519 63.7231 115.499 63.84C115.185 65.4918 114.87 67.1486 114.561 68.8003C114.556 68.8359 114.556 68.8715 114.551 68.9172V68.9223Z" fill="#EC3530"/>
<path d="M117.066 55.5457C115.22 55.007 113.805 53.9804 113.035 52.1711C112.31 50.4685 113.278 48.5728 115.108 48.1154C116.031 47.8867 116.934 48.0188 117.816 48.3288C119.281 48.8421 120.503 49.7061 121.416 50.9767C121.918 51.673 122.207 52.4607 122.187 53.3349C122.171 54.0007 121.832 54.5191 121.36 54.9612C121.279 55.0375 121.244 54.9612 121.203 54.9206C120.736 54.5038 120.275 54.082 119.809 53.6652C119.175 53.0859 118.536 52.5065 117.902 51.9271C117.867 51.8966 117.831 51.8661 117.765 51.8153C117.527 53.0757 117.294 54.3107 117.06 55.5457H117.066Z" fill="#EC3530"/>
<path d="M130.826 63.6977C130.248 63.1742 129.701 62.6711 129.148 62.173C128.803 61.863 128.464 61.5479 128.114 61.243C128.012 61.1566 128.038 61.1159 128.114 61.0397C128.738 60.4704 129.478 60.2926 130.289 60.4095C132.099 60.6737 133.544 62.046 133.919 63.8349C134.097 64.6837 134.001 65.4968 133.433 66.1931C132.85 66.9046 132.064 67.2147 131.166 67.1638C129.599 67.0724 128.489 66.2541 127.749 64.887C127.683 64.7599 127.693 64.7091 127.84 64.6633C128.773 64.3686 129.701 64.0636 130.629 63.7587C130.685 63.7384 130.74 63.7231 130.821 63.6977H130.826Z" fill="#EC3530"/>
<path d="M101.38 66.6245C101.38 67.7274 101.38 68.8302 101.38 69.9331C101.38 70.0703 101.354 70.116 101.207 70.116C99.5796 70.111 97.952 70.111 96.3245 70.116C96.1723 70.116 96.1521 70.0652 96.1521 69.9331C96.1521 68.0526 96.1521 66.1773 96.1521 64.2968C96.1521 63.9156 96.1267 63.5396 96.0507 63.1685C95.934 62.6146 95.6248 62.1927 95.1684 61.8776C94.0986 61.1407 92.5268 61.1915 91.4975 61.9793C90.5494 62.7061 90.2857 63.9309 90.8992 64.8457C91.2896 65.4251 91.8474 65.7707 92.5116 65.9536C93.3583 66.1823 94.1899 66.0655 95.0163 65.8317C95.1836 65.7808 95.209 65.8164 95.209 65.9791C95.2039 67.336 95.209 68.6879 95.209 70.0449C95.209 70.1567 95.2039 70.2329 95.062 70.2583C92.5775 70.6599 90.2654 70.2075 88.1765 68.7896C86.8531 67.89 85.9202 66.6753 85.5602 65.0947C85.1394 63.2549 85.545 61.5829 86.701 60.0988C87.8266 58.6504 89.3325 57.7661 91.0919 57.3493C93.4952 56.7801 95.8174 57.0291 97.9926 58.254C99.3717 59.0316 100.416 60.1344 101.009 61.6286C101.258 62.2639 101.38 62.9246 101.38 63.6005C101.38 64.6119 101.38 65.6233 101.38 66.6347V66.6245Z" fill="#747476"/>
<path d="M68.9392 65.9181C68.9392 65.9943 68.9392 66.0553 68.9392 66.1112C68.9392 67.458 68.9392 68.8099 68.9392 70.1567C68.9392 70.3244 68.8935 70.3803 68.7313 70.4006C66.0795 70.792 63.6508 70.2533 61.5162 68.6066C60.3551 67.7121 59.5642 66.533 59.2752 65.0693C58.9202 63.2753 59.3309 61.6489 60.4565 60.2157C61.6227 58.7317 63.1692 57.8372 64.9843 57.4357C67.266 56.9326 69.4766 57.1663 71.5555 58.2794C72.9549 59.0265 74.045 60.0937 74.6889 61.5778C74.9678 62.2181 75.125 62.8941 75.125 63.5904C75.1351 65.7605 75.125 67.9256 75.1351 70.0957C75.1351 70.2126 75.1097 70.2482 74.9881 70.2482C73.3402 70.2482 71.6974 70.2482 70.0496 70.2482C69.8924 70.2482 69.8975 70.1669 69.8975 70.0601C69.8975 68.2051 69.8975 66.3501 69.8975 64.495C69.8975 64.1138 69.8721 63.7378 69.8062 63.3617C69.6997 62.7772 69.3955 62.33 68.9088 61.9996C67.8237 61.2627 66.1961 61.3389 65.1821 62.1673C64.0767 63.072 63.9906 64.7237 65.324 65.6385C65.9122 66.04 66.5612 66.2027 67.2609 66.1976C67.7679 66.1976 68.2598 66.0909 68.7516 65.9587C68.8073 65.9435 68.8631 65.9282 68.9392 65.9079V65.9181Z" fill="#747476"/>
<path d="M34.0051 58.8587C34.0051 57.1308 34.0051 55.4028 34.0051 53.6748C34.0051 53.502 34.0558 53.4715 34.213 53.4715C35.8253 53.4766 37.4326 53.4766 39.045 53.4715C39.1971 53.4715 39.2326 53.5122 39.2326 53.6596C39.2275 54.798 39.2326 55.9364 39.2224 57.0749C39.2224 57.2375 39.2681 57.2731 39.4202 57.2731C40.2568 57.2629 41.0883 57.2731 41.9249 57.268C42.0618 57.268 42.0973 57.3036 42.0973 57.4408C42.0922 58.7673 42.0922 60.0887 42.0973 61.4151C42.0973 61.5727 42.0415 61.6032 41.8995 61.5981C41.068 61.593 40.2416 61.5981 39.41 61.593C39.263 61.593 39.2174 61.6286 39.2174 61.7811C39.2224 62.6044 39.2174 63.4328 39.2174 64.2561C39.2174 64.5763 39.2528 64.8914 39.3847 65.1913C39.623 65.73 40.0793 65.9638 40.6269 66.0553C41.0528 66.1264 41.4787 66.101 41.8995 66.0553C42.0364 66.04 42.0871 66.0705 42.0871 66.223C42.0821 67.5342 42.0821 68.8505 42.0871 70.1618C42.0871 70.299 42.0415 70.3397 41.9198 70.3498C39.7497 70.5328 37.7419 70.1008 36.0281 68.693C34.9279 67.7934 34.2383 66.6347 34.1014 65.1862C34.0456 64.617 34 64.0478 34 63.4735C34 61.9386 34 60.4038 34 58.8689L34.0051 58.8587Z" fill="#747476"/>
<path d="M78.923 53.4766C79.7241 53.4766 80.5201 53.4766 81.3212 53.4766C81.4784 53.4766 81.5342 53.5071 81.5342 53.6799C81.524 54.8132 81.5342 55.9415 81.524 57.0748C81.524 57.2273 81.5545 57.2781 81.7167 57.2781C82.5584 57.268 83.4001 57.2781 84.2417 57.2731C84.3786 57.2731 84.4141 57.3086 84.409 57.4408C84.404 58.7723 84.404 60.1039 84.409 61.4304C84.409 61.5727 84.3634 61.5981 84.2367 61.5981C83.395 61.593 82.5533 61.5981 81.7116 61.593C81.5595 61.593 81.519 61.6337 81.519 61.7861C81.524 62.579 81.519 63.3769 81.519 64.1697C81.519 64.4188 81.5342 64.6627 81.595 64.9067C81.7573 65.5674 82.2136 65.9485 82.9387 66.0603C83.3646 66.1264 83.7905 66.1061 84.2113 66.0603C84.3634 66.0451 84.404 66.0858 84.404 66.2382C84.3989 67.5444 84.3989 68.8505 84.404 70.1567C84.404 70.2787 84.3837 70.3396 84.2468 70.3498C82.097 70.5379 80.1094 70.1059 78.3906 68.7387C77.1839 67.7782 76.4994 66.5279 76.3827 64.9677C76.3422 64.3883 76.3118 63.814 76.3118 63.2346C76.3118 60.0632 76.3118 56.8868 76.3118 53.7154C76.3118 53.441 76.2763 53.4817 76.5551 53.4817C77.341 53.4817 78.1269 53.4817 78.9179 53.4817L78.923 53.4766Z" fill="#747476"/>
<path d="M43.8413 66.4263C43.8413 65.3793 43.8312 64.3324 43.8413 63.2854C43.8515 62.2334 44.034 61.2068 44.5512 60.2818C45.1089 59.2755 45.9556 58.5487 46.9444 57.9948C47.9128 57.451 48.9623 57.1765 50.0626 57.085C50.5189 57.0495 50.9753 57.0444 51.4316 57.0698C51.5583 57.0749 51.604 57.1155 51.5989 57.2528C51.5938 58.5996 51.5938 59.9515 51.5989 61.2983C51.5989 61.4355 51.5735 61.4711 51.4316 61.4355C51.0919 61.344 50.7471 61.3237 50.3972 61.3847C49.662 61.5117 49.1956 62.0149 49.0992 62.7569C49.0536 63.1279 49.0333 63.4989 49.0333 63.875C49.0333 65.8876 49.0333 67.8951 49.0333 69.9077C49.0333 70.0652 49.0029 70.1211 48.8305 70.1211C47.2283 70.1161 45.621 70.1161 44.0188 70.1211C43.8565 70.1211 43.821 70.0805 43.821 69.9229C43.8261 68.7591 43.821 67.6003 43.821 66.4365L43.8413 66.4263Z" fill="#747476"/>
<path d="M52.7854 63.6869C52.7854 61.6184 52.7854 59.5449 52.7854 57.4764C52.7854 57.3137 52.8209 57.268 52.9882 57.268C54.5955 57.2731 56.2079 57.2731 57.8152 57.268C57.9622 57.268 58.018 57.2934 58.018 57.4611C58.0129 61.6134 58.0129 65.7707 58.018 69.9229C58.018 70.0652 57.9875 70.116 57.8354 70.116C56.2129 70.111 54.5904 70.111 52.973 70.116C52.8158 70.116 52.7905 70.0652 52.7905 69.9229C52.7905 67.8443 52.7905 65.7707 52.7905 63.692L52.7854 63.6869Z" fill="#747476"/>
<path d="M58.2007 52.9125C58.2007 54.4372 56.9331 55.6823 55.4069 55.6671C53.8757 55.6569 52.598 54.4067 52.603 52.9277C52.6081 51.342 53.8503 50.0867 55.3866 50.0715C56.6542 50.0562 58.2209 51.0829 58.2007 52.9125Z" fill="#EC3530"/>
</svg>

<?xml version="1.0" encoding="UTF-8"?>
<svg id="Layer_1" xmlns="http://www.w3.org/2000/svg" version="1.1" viewBox="0 0 168 118">
  <!-- Generator: Adobe Illustrator 30.2.1, SVG Export Plug-In . SVG Version: 2.1.1 Build 1)  -->
  <defs>
    <style>
      .st0 {
        fill: #e3e3e3;
      }

      .st1 {
        fill: #ec3530;
      }
    </style>
  </defs>
  <path class="st1" d="M114.55,68.92c.82-.26,1.63-.52,2.44-.77.56-.18,1.12-.35,1.68-.53.14-.05.17-.01.19.12.06.65-.01,1.29-.17,1.92-.26,1.04-.68,2-1.46,2.77-1.69,1.68-4.42,2.02-6.42.72-1.23-.8-2.03-1.96-2.21-3.45-.26-2.22.67-3.91,2.46-5.15,1.3-.9,2.76-1.13,4.32-.88.12.02.14.05.12.17-.31,1.65-.63,3.31-.94,4.96,0,.04,0,.07,0,.12h0Z"/>
  <path class="st1" d="M117.07,55.55c-1.85-.54-3.26-1.57-4.03-3.37-.73-1.7.24-3.6,2.07-4.06.92-.23,1.83-.1,2.71.21,1.46.51,2.69,1.38,3.6,2.65.5.7.79,1.48.77,2.36-.02.67-.35,1.18-.83,1.63-.08.08-.12,0-.16-.04-.47-.42-.93-.84-1.39-1.26-.63-.58-1.27-1.16-1.91-1.74-.04-.03-.07-.06-.14-.11-.24,1.26-.47,2.5-.71,3.73h0Z"/>
  <path class="st1" d="M130.83,63.7c-.58-.52-1.12-1.03-1.68-1.52-.35-.31-.68-.63-1.03-.93-.1-.09-.08-.13,0-.2.62-.57,1.36-.75,2.18-.63,1.81.26,3.26,1.64,3.63,3.43.18.85.08,1.66-.49,2.36-.58.71-1.37,1.02-2.27.97-1.57-.09-2.68-.91-3.42-2.28-.07-.13-.06-.18.09-.22.93-.29,1.86-.6,2.79-.9.06-.02.11-.04.19-.06h0Z"/>
  <path class="st0" d="M101.38,66.62v3.31c0,.14-.03.18-.17.18-1.63,0-3.25,0-4.88,0-.15,0-.17-.05-.17-.18v-5.64c0-.38-.03-.76-.1-1.13-.12-.55-.43-.98-.88-1.29-1.07-.74-2.64-.69-3.67.1-.95.73-1.21,1.95-.6,2.87.39.58.95.92,1.61,1.11.85.23,1.68.11,2.5-.12.17-.05.19-.02.19.15,0,1.36,0,2.71,0,4.07,0,.11,0,.19-.15.21-2.48.4-4.8-.05-6.89-1.47-1.32-.9-2.26-2.11-2.62-3.69-.42-1.84-.02-3.51,1.14-5,1.13-1.45,2.63-2.33,4.39-2.75,2.4-.57,4.73-.32,6.9.9,1.38.78,2.42,1.88,3.02,3.37.25.64.37,1.3.37,1.97v3.03h0Z"/>
  <path class="st0" d="M68.94,65.92v4.24c0,.17-.05.22-.21.24-2.65.39-5.08-.15-7.22-1.79-1.16-.89-1.95-2.07-2.24-3.54-.35-1.79.06-3.42,1.18-4.85,1.17-1.48,2.71-2.38,4.53-2.78,2.28-.5,4.49-.27,6.57.84,1.4.75,2.49,1.81,3.13,3.3.28.64.44,1.32.44,2.01.01,2.17,0,4.34.01,6.51,0,.12-.03.15-.15.15h-4.94c-.16,0-.15-.08-.15-.19v-5.57c0-.38-.03-.76-.09-1.13-.11-.58-.41-1.03-.9-1.36-1.09-.74-2.71-.66-3.73.17-1.11.9-1.19,2.56.14,3.47.59.4,1.24.56,1.94.56.51,0,1-.11,1.49-.24.06-.02.11-.03.19-.05h0Z"/>
  <path class="st0" d="M34.01,58.86v-5.18c0-.17.05-.2.21-.2,1.61,0,3.22,0,4.83,0,.15,0,.19.04.19.19,0,1.14,0,2.28-.01,3.42,0,.16.05.2.2.2.84-.01,1.67,0,2.5,0,.14,0,.17.04.17.17,0,1.33,0,2.65,0,3.97,0,.16-.06.19-.2.18-.83,0-1.66,0-2.49,0-.15,0-.19.04-.19.19,0,.82,0,1.65,0,2.48,0,.32.04.64.17.94.24.54.69.77,1.24.86.43.07.85.05,1.27,0,.14-.02.19.02.19.17,0,1.31,0,2.63,0,3.94,0,.14-.05.18-.17.19-2.17.18-4.18-.25-5.89-1.66-1.1-.9-1.79-2.06-1.93-3.51-.06-.57-.1-1.14-.1-1.71v-4.6h0Z"/>
  <path class="st0" d="M78.92,53.48h2.4c.16,0,.21.03.21.2-.01,1.13,0,2.26-.01,3.39,0,.15.03.2.19.2.84-.01,1.68,0,2.53,0,.14,0,.17.04.17.17,0,1.33,0,2.66,0,3.99,0,.14-.05.17-.17.17-.84,0-1.68,0-2.53,0-.15,0-.19.04-.19.19,0,.79,0,1.59,0,2.38,0,.25.02.49.08.74.16.66.62,1.04,1.34,1.15.43.07.85.05,1.27,0,.15-.02.19.03.19.18,0,1.31,0,2.61,0,3.92,0,.12-.02.18-.16.19-2.15.19-4.14-.24-5.86-1.61-1.21-.96-1.89-2.21-2.01-3.77-.04-.58-.07-1.15-.07-1.73v-9.52c0-.27-.04-.23.24-.23h2.37Z"/>
  <path class="st0" d="M43.84,66.43c0-1.05-.01-2.09,0-3.14.01-1.05.19-2.08.71-3,.56-1.01,1.4-1.73,2.39-2.29.97-.54,2.02-.82,3.12-.91.46-.04.91-.04,1.37-.02.13,0,.17.05.17.18,0,1.35,0,2.7,0,4.05,0,.14-.03.17-.17.14-.34-.09-.68-.11-1.03-.05-.74.13-1.2.63-1.3,1.37-.05.37-.07.74-.07,1.12v6.03c0,.16-.03.21-.2.21-1.6,0-3.21,0-4.81,0-.16,0-.2-.04-.2-.2,0-1.16,0-2.32,0-3.49h.02Z"/>
  <path class="st0" d="M52.79,63.69v-6.21c0-.16.04-.21.2-.21,1.61,0,3.22,0,4.83,0,.15,0,.2.03.2.19,0,4.15,0,8.31,0,12.46,0,.14-.03.19-.18.19-1.62,0-3.24,0-4.86,0-.16,0-.18-.05-.18-.19v-6.23h0Z"/>
  <path class="st1" d="M58.2,52.91c0,1.52-1.27,2.77-2.79,2.75-1.53-.01-2.81-1.26-2.8-2.74,0-1.59,1.25-2.84,2.78-2.86,1.27-.02,2.83,1.01,2.81,2.84Z"/>
</svg>
